X:47
T:Prussian Dragoon. THO5.047, The
M:2/4
L:1/8
B:Thompson's Complete Collection of 200 Favourite Dances Vol.5
F:https://www.libraryofdance.org/manuals/1780c-Thompson-Compleat-5.pdf
Z:vmp. Peter Dunk 2024
Q:1/4=140
K:A
ABcd|efec|ecac|ecac|
ABcd|efec|ecac|A/A/A A2:|
|:ceAe|ceAe|GBEB|GBEB|
ceAe|ceAe|afec|A/A/A A2:|
W:
W:Hey contrary sides ./.
W:then on your own sides ./:
W:Hands 6 quite round :/.
W:lead through the 3rd Couple & cast up one,
W:lead to the top and cast off :/:

